icon/lg/octodns.svg

<?xml version="1.0" encoding="UTF-8"?>
<svg viewBox="0 0 256 239" version="1.1" xmlns="http://www.w3.org/2000/svg" xmlns:xlink="http://www.w3.org/1999/xlink" preserveAspectRatio="xMidYMid" height="1em" width="1em">
  <g>
    <path d="M159.4124,2.8334 C149.3754,2.8334 139.0704,5.4034 129.3434,11.0384 L30.2134,68.4664 C-10.2186,91.8884 -10.0336,150.4264 30.5434,173.2294 L130.1584,229.2084 C139.6274,234.5284 149.6304,236.9604 159.3804,236.9604 C190.9904,236.9604 219.9804,211.4264 219.8294,176.0714 L219.3454,62.6654 C219.1964,27.7084 190.6234,2.8334 159.4124,2.8334 M159.4124,11.5224 C172.4824,11.5224 185.4604,16.7694 195.0184,25.9174 C205.0424,35.5114 210.5964,48.5744 210.6564,62.7024 L211.1414,176.1084 C211.2004,190.0424 205.8924,203.0794 196.1974,212.8164 C186.4174,222.6384 172.9984,228.2704 159.3804,228.2704 C150.6524,228.2704 142.2534,226.0374 134.4154,221.6334 L34.8014,165.6534 C18.5734,156.5354 8.8124,139.9294 8.6904,121.2324 C8.5664,102.3584 18.2414,85.4434 34.5684,75.9844 L133.6994,18.5574 C141.7564,13.8894 150.4074,11.5224 159.4124,11.5224" fill="#AF81E0"/>
    <path d="M95.0721,0.0004 C63.1701,0.0004 33.8351,25.4854 33.8351,61.2234 L33.8351,177.5764 C33.8351,213.2374 63.1101,238.7964 95.0511,238.7964 C105.1341,238.7964 115.4801,236.2504 125.2581,230.6714 L225.1641,173.6684 C265.8641,150.4464 266.3771,91.9504 226.0921,68.0194 L126.1851,8.6684 C116.1621,2.7134 105.4791,0.0004 95.0721,0.0004 M95.0721,8.6894 C104.4521,8.6894 113.4271,11.1954 121.7471,16.1384 L221.6541,75.4894 C237.8841,85.1314 247.4741,102.1564 247.3091,121.0334 C247.1431,139.9104 237.2551,156.7664 220.8591,166.1214 L120.9521,223.1244 C112.8311,227.7574 104.1171,230.1064 95.0511,230.1064 C81.6301,230.1064 68.3001,224.7054 58.4791,215.2874 C48.1911,205.4214 42.5241,192.0284 42.5241,177.5764 L42.5241,61.2234 C42.5241,28.7744 69.8011,8.6894 95.0721,8.6894" fill="#9069C4"/>
    <path d="M215.22,129.7865 C214.917,129.7865 214.631,129.7285 214.336,129.6965 L219.062,121.5135 L214.336,113.3295 C214.63,113.2975 214.917,113.2395 215.22,113.2395 C219.782,113.2395 223.492,116.9515 223.492,121.5135 C223.492,126.0755 219.782,129.7865 215.22,129.7865 L215.22,129.7865 Z M172.498,180.9345 C164.823,180.9345 158.346,186.0355 156.253,193.0295 L97.713,193.0295 C95.62,186.0355 89.143,180.9345 81.468,180.9345 C80.401,180.9345 79.361,181.0455 78.348,181.2335 L50.544,133.0755 C53.374,130.0445 55.12,125.9875 55.12,121.5135 C55.12,117.0395 53.375,112.9815 50.544,109.9505 L77.886,62.5935 C79.042,62.8415 80.238,62.9795 81.468,62.9795 C89.463,62.9795 96.148,57.4415 97.942,49.9975 L156.751,49.9975 C159.249,56.2525 165.351,60.6775 172.498,60.6775 C172.959,60.6775 173.412,60.6445 173.865,60.6085 L202.539,110.2745 C199.883,113.2685 198.257,117.1965 198.257,121.5135 C198.257,125.8305 199.883,129.7585 202.539,132.7525 L174.635,181.0835 C173.933,180.9955 173.223,180.9345 172.498,180.9345 L172.498,180.9345 Z M165.842,193.0295 C166.733,191.8145 167.93,190.8425 169.339,190.2575 L167.738,193.0295 L165.842,193.0295 Z M180.771,197.8965 C180.771,202.4595 177.06,206.1705 172.498,206.1705 C169.322,206.1705 166.59,204.3505 165.204,201.7185 L172.755,201.7185 L178.339,192.0455 C179.841,193.5435 180.771,195.6135 180.771,197.8965 L180.771,197.8965 Z M83.324,189.8515 C85.285,190.3045 86.97,191.4555 88.124,193.0295 L85.158,193.0295 L83.324,189.8515 Z M81.468,206.1705 C76.907,206.1705 73.195,202.4595 73.195,197.8965 C73.195,195.9685 73.886,194.2155 74.996,192.8075 L80.142,201.7185 L88.762,201.7185 C87.376,204.3505 84.644,206.1705 81.468,206.1705 L81.468,206.1705 Z M38.158,129.7865 C33.596,129.7865 29.885,126.0755 29.885,121.5135 C29.885,116.9515 33.596,113.2395 38.158,113.2395 C38.304,113.2395 38.442,113.2755 38.587,113.2835 L33.835,121.5135 L38.586,129.7425 C38.441,129.7505 38.304,129.7865 38.158,129.7865 L38.158,129.7865 Z M46.43,121.5135 C46.43,122.6735 46.186,123.7755 45.754,124.7775 L43.868,121.5135 L45.754,118.2485 C46.186,119.2515 46.43,120.3525 46.43,121.5135 L46.43,121.5135 Z M88.676,49.9975 C87.463,52.1825 85.314,53.7565 82.755,54.1605 L85.158,49.9975 L88.676,49.9975 Z M73.195,46.0165 C73.195,41.4555 76.907,37.7445 81.468,37.7445 C84.279,37.7445 86.759,39.1595 88.255,41.3075 L80.142,41.3075 L74.695,50.7425 C73.756,49.4005 73.195,47.7755 73.195,46.0165 L73.195,46.0165 Z M168.16,50.7275 C167.811,50.5115 167.49,50.2625 167.177,49.9975 L167.738,49.9975 L168.16,50.7275 Z M172.498,35.4425 C177.06,35.4425 180.771,39.1535 180.771,43.7155 C180.771,46.2565 179.595,48.5045 177.787,50.0235 L172.755,41.3075 L164.624,41.3075 C165.662,37.9245 168.779,35.4425 172.498,35.4425 L172.498,35.4425 Z M206.947,121.5135 C206.947,120.5495 207.144,119.6385 207.449,118.7765 L209.028,121.5135 L207.449,124.2495 C207.144,123.3895 206.947,122.4765 206.947,121.5135 L206.947,121.5135 Z M215.22,104.5515 C213.319,104.5515 211.496,104.8775 209.79,105.4545 L182.18,57.6325 C186.577,54.5675 189.46,49.4805 189.46,43.7155 C189.46,34.3475 181.866,26.7525 172.498,26.7525 C163.949,26.7525 156.898,33.0825 155.726,41.3075 L97.754,41.3075 C95.711,34.2335 89.2,29.0555 81.468,29.0555 C72.1,29.0555 64.506,36.6495 64.506,46.0165 C64.506,51.0275 66.691,55.5165 70.146,58.6215 L43.19,105.3105 C41.6,104.8165 39.909,104.5515 38.158,104.5515 C28.789,104.5515 21.195,112.1445 21.195,121.5135 C21.195,130.8815 28.789,138.4755 38.158,138.4755 C39.909,138.4755 41.6,138.2095 43.19,137.7165 L70.482,184.9875 C66.829,188.0985 64.506,192.7235 64.506,197.8965 C64.506,207.2655 72.1,214.8595 81.468,214.8595 C89.52,214.8595 96.247,209.2435 97.982,201.7185 L155.984,201.7185 C157.719,209.2435 164.446,214.8595 172.498,214.8595 C181.866,214.8595 189.46,207.2655 189.46,197.8965 C189.46,192.3875 186.821,187.5045 182.75,184.4065 L209.79,137.5715 C211.496,138.1485 213.319,138.4755 215.22,138.4755 C224.588,138.4755 232.182,130.8815 232.182,121.5135 C232.182,112.1445 224.588,104.5515 215.22,104.5515 L215.22,104.5515 Z" fill="#825ABA"/>
    <path d="M182.1341,43.7152 C182.1341,49.0362 177.8201,53.3512 172.4981,53.3512 C167.1761,53.3512 162.8621,49.0362 162.8621,43.7152 C162.8621,38.3932 167.1761,34.0792 172.4981,34.0792 C177.8201,34.0792 182.1341,38.3932 182.1341,43.7152" fill="#FFFFFF"/>
    <path d="M91.1039,46.017 C91.1039,51.339 86.7899,55.653 81.4679,55.653 C76.1459,55.653 71.8329,51.339 71.8329,46.017 C71.8329,40.696 76.1459,36.382 81.4679,36.382 C86.7899,36.382 91.1039,40.696 91.1039,46.017" fill="#FFFFFF"/>
    <path d="M47.7933,121.5131 C47.7933,126.8351 43.4793,131.1491 38.1573,131.1491 C32.8353,131.1491 28.5223,126.8351 28.5223,121.5131 C28.5223,116.1921 32.8353,111.8771 38.1573,111.8771 C43.4793,111.8771 47.7933,116.1921 47.7933,121.5131" fill="#FFFFFF"/>
    <path d="M91.1039,197.8969 C91.1039,203.2189 86.7899,207.5329 81.4679,207.5329 C76.1459,207.5329 71.8329,203.2189 71.8329,197.8969 C71.8329,192.5759 76.1459,188.2609 81.4679,188.2609 C86.7899,188.2609 91.1039,192.5759 91.1039,197.8969" fill="#FFFFFF"/>
    <path d="M182.1341,197.8969 C182.1341,203.2189 177.8201,207.5329 172.4981,207.5329 C167.1761,207.5329 162.8621,203.2189 162.8621,197.8969 C162.8621,192.5759 167.1761,188.2609 172.4981,188.2609 C177.8201,188.2609 182.1341,192.5759 182.1341,197.8969" fill="#FFFFFF"/>
    <path d="M224.8558,121.5131 C224.8558,126.8351 220.5418,131.1491 215.2198,131.1491 C209.8978,131.1491 205.5848,126.8351 205.5848,121.5131 C205.5848,116.1921 209.8978,111.8771 215.2198,111.8771 C220.5418,111.8771 224.8558,116.1921 224.8558,121.5131" fill="#FFFFFF"/>
  </g>
</svg>

<svg width="256" height="239" xmlns="http://www.w3.org/2000/svg" preserveAspectRatio="xMidYMid"><path d="M159.412 2.833c-10.037 0-20.342 2.57-30.069 8.205l-99.13 57.428c-40.432 23.422-40.247 81.96.33 104.763l99.615 55.98c9.47 5.32 19.472 7.751 29.222 7.751 31.61 0 60.6-25.534 60.45-60.889l-.485-113.406c-.149-34.957-28.722-59.832-59.933-59.832m0 8.69c13.07 0 26.048 5.246 35.606 14.394 10.024 9.594 15.578 22.657 15.638 36.785l.485 113.406c.06 13.934-5.249 26.971-14.944 36.708-9.78 9.822-23.199 15.454-36.817 15.454-8.728 0-17.127-2.233-24.965-6.637l-99.614-55.98c-16.228-9.118-25.989-25.724-26.11-44.42-.125-18.875 9.55-35.79 25.877-45.249L133.7 18.557c8.057-4.668 16.708-7.035 25.713-7.035" fill="#AF81E0"/><path d="M95.072 0C63.17 0 33.835 25.485 33.835 61.223v116.353c0 35.661 29.275 61.22 61.216 61.22 10.083 0 20.43-2.546 30.207-8.125l99.906-57.003c40.7-23.222 41.213-81.718.928-105.649L126.185 8.67C116.162 2.712 105.48 0 95.072 0m0 8.69c9.38 0 18.355 2.505 26.675 7.448l99.907 59.351c16.23 9.642 25.82 26.667 25.655 45.544-.166 18.877-10.054 35.733-26.45 45.088l-99.907 57.003c-8.12 4.633-16.835 6.982-25.9 6.982-13.422 0-26.752-5.4-36.573-14.819-10.288-9.866-15.955-23.259-15.955-37.71V61.222c0-32.449 27.277-52.534 52.548-52.534" fill="#9069C4"/><path d="M215.22 129.786c-.303 0-.589-.058-.884-.09l4.726-8.183-4.726-8.184c.294-.031.581-.09.884-.09 4.562 0 8.272 3.712 8.272 8.274 0 4.563-3.71 8.273-8.272 8.273Zm-42.722 51.149c-7.675 0-14.152 5.1-16.245 12.095h-58.54c-2.093-6.994-8.57-12.095-16.245-12.095-1.067 0-2.107.11-3.12.298l-27.804-48.157c2.83-3.031 4.576-7.088 4.576-11.563 0-4.474-1.745-8.532-4.576-11.563l27.342-47.357c1.156.248 2.352.386 3.582.386 7.995 0 14.68-5.538 16.474-12.981h58.809c2.498 6.255 8.6 10.68 15.747 10.68.461 0 .914-.033 1.367-.07l28.674 49.667c-2.656 2.993-4.282 6.921-4.282 11.238 0 4.317 1.626 8.245 4.282 11.24l-27.904 48.33a17.129 17.129 0 0 0-2.137-.148Zm-6.656 12.095a8.292 8.292 0 0 1 3.497-2.773l-1.601 2.773h-1.896Zm14.929 4.867c0 4.563-3.711 8.274-8.273 8.274-3.176 0-5.908-1.82-7.294-4.452h7.551l5.584-9.673a8.241 8.241 0 0 1 2.432 5.85Zm-97.447-8.046a8.262 8.262 0 0 1 4.8 3.179h-2.966l-1.834-3.179Zm-1.856 16.32c-4.561 0-8.273-3.712-8.273-8.274 0-1.928.691-3.681 1.801-5.09l5.146 8.912h8.62c-1.386 2.632-4.118 4.452-7.294 4.452Zm-43.31-76.385c-4.562 0-8.273-3.71-8.273-8.273 0-4.562 3.711-8.273 8.273-8.273.146 0 .284.035.429.044l-4.752 8.23 4.751 8.229c-.145.007-.282.043-.428.043Zm8.272-8.273c0 1.16-.244 2.262-.676 3.264l-1.886-3.264 1.886-3.264a8.227 8.227 0 0 1 .676 3.264Zm42.246-71.516a8.245 8.245 0 0 1-5.921 4.163l2.403-4.162h3.518Zm-15.481-3.98c0-4.562 3.712-8.273 8.273-8.273 2.811 0 5.291 1.416 6.787 3.563h-8.113l-5.447 9.435a8.214 8.214 0 0 1-1.5-4.725Zm94.965 4.71a8.23 8.23 0 0 1-.983-.73h.561l.422.73Zm4.338-15.284c4.562 0 8.273 3.71 8.273 8.273 0 2.54-1.176 4.788-2.984 6.307l-5.032-8.716h-8.131c1.038-3.383 4.155-5.864 7.874-5.864Zm34.449 86.07c0-.964.197-1.875.502-2.737l1.579 2.737-1.579 2.736c-.305-.86-.502-1.772-.502-2.736Zm8.273-16.962a16.91 16.91 0 0 0-5.43.903l-27.61-47.821c4.397-3.066 7.28-8.153 7.28-13.918 0-9.368-7.594-16.963-16.962-16.963-8.549 0-15.6 6.33-16.772 14.555H97.754c-2.043-7.074-8.554-12.252-16.286-12.252-9.368 0-16.962 7.595-16.962 16.962 0 5.01 2.185 9.5 5.64 12.604l-26.956 46.69a16.938 16.938 0 0 0-5.032-.76c-9.369 0-16.963 7.593-16.963 16.962 0 9.368 7.594 16.963 16.963 16.963a16.97 16.97 0 0 0 5.032-.76l27.292 47.272c-3.653 3.11-5.976 7.736-5.976 12.909 0 9.369 7.594 16.963 16.962 16.963 8.052 0 14.779-5.617 16.514-13.142h58.002c1.735 7.526 8.462 13.142 16.514 13.142 9.368 0 16.962-7.595 16.962-16.964 0-5.508-2.639-10.391-6.71-13.49l27.04-46.835c1.706.578 3.529.905 5.43.905 9.368 0 16.962-7.595 16.962-16.963 0-9.369-7.594-16.962-16.962-16.962Z" fill="#825ABA"/><path d="M182.134 43.715c0 5.321-4.314 9.636-9.636 9.636-5.322 0-9.636-4.315-9.636-9.636a9.636 9.636 0 0 1 9.636-9.636 9.636 9.636 0 0 1 9.636 9.636M91.104 46.017a9.636 9.636 0 0 1-9.636 9.636c-5.322 0-9.635-4.314-9.635-9.636a9.635 9.635 0 0 1 9.635-9.635c5.322 0 9.636 4.314 9.636 9.635M47.793 121.513a9.636 9.636 0 0 1-9.636 9.636c-5.322 0-9.635-4.314-9.635-9.636 0-5.32 4.313-9.636 9.635-9.636s9.636 4.315 9.636 9.636M91.104 197.897a9.636 9.636 0 0 1-9.636 9.636c-5.322 0-9.635-4.314-9.635-9.636 0-5.321 4.313-9.636 9.635-9.636s9.636 4.315 9.636 9.636M182.134 197.897a9.636 9.636 0 0 1-9.636 9.636 9.636 9.636 0 0 1-9.636-9.636c0-5.321 4.314-9.636 9.636-9.636 5.322 0 9.636 4.315 9.636 9.636M224.856 121.513a9.636 9.636 0 0 1-9.636 9.636c-5.322 0-9.635-4.314-9.635-9.636 0-5.32 4.313-9.636 9.635-9.636s9.636 4.315 9.636 9.636" fill="#FFF"/></svg>
